flaticon/transportation/motorcycle.svg

<svg xmlns="http://www.w3.org/2000/svg" width="32" height="32" viewBox="0 0 24 24">
    <path d="M 20.117188 11.554688 C 19.421875 11.554688 18.769531 11.738281 18.207031 12.058594 L 17.203125 10.722656 C 18.476562 9.789062 19.789062 9.363281 19.902344 9.328125 C 20.042969 9.28125 20.160156 9.175781 20.21875 9.042969 C 20.277344 8.90625 20.273438 8.753906 20.210938 8.617188 C 18.484375 5 15.804688 4.6875 15.691406 4.675781 C 15.476562 4.65625 15.277344 4.769531 15.183594 4.957031 C 15.085938 5.148438 15.121094 5.378906 15.265625 5.535156 C 15.582031 5.875 15.714844 6.242188 15.667969 6.664062 C 15.648438 6.84375 15.59375 7.03125 15.515625 7.214844 C 12.601562 6.261719 10.742188 7.621094 10.085938 8.238281 C 8.460938 7.664062 6.996094 7.375 5.714844 7.375 C 3.738281 7.375 2.90625 8.074219 2.816406 8.15625 C 2.671875 8.285156 2.613281 8.488281 2.667969 8.675781 C 2.71875 8.863281 2.875 9.003906 3.066406 9.035156 C 4.945312 9.378906 6.261719 10.019531 7.175781 10.78125 L 5.988281 12.175781 C 5.382812 11.785156 4.660156 11.554688 3.886719 11.554688 C 1.742188 11.554688 0 13.296875 0 15.441406 C 0 17.582031 1.742188 19.324219 3.886719 19.324219 C 6.027344 19.324219 7.769531 17.582031 7.769531 15.441406 C 7.769531 14.441406 7.390625 13.527344 6.765625 12.835938 L 7.90625 11.5 C 9.5625 13.449219 9.222656 15.761719 9.199219 15.910156 C 9.175781 16.058594 9.214844 16.207031 9.3125 16.324219 C 9.410156 16.4375 9.554688 16.503906 9.703125 16.503906 L 14.269531 16.503906 C 14.417969 16.503906 14.5625 16.4375 14.65625 16.324219 C 14.753906 16.210938 14.796875 16.0625 14.773438 15.914062 C 14.460938 13.90625 15.316406 12.421875 16.414062 11.378906 L 17.390625 12.671875 C 16.675781 13.378906 16.230469 14.359375 16.230469 15.441406 C 16.230469 17.582031 17.972656 19.324219 20.117188 19.324219 C 22.257812 19.324219 24 17.582031 24 15.441406 C 24 13.296875 22.257812 11.554688 20.117188 11.554688 Z M 14.96875 8.117188 C 14.46875 8.757812 13.808594 9.328125 13.363281 9.664062 C 12.605469 9.277344 11.875 8.941406 11.171875 8.652344 C 11.839844 8.171875 13.113281 7.585938 14.96875 8.117188 Z M 6.75 15.441406 C 6.75 17.019531 5.464844 18.304688 3.886719 18.304688 C 2.304688 18.304688 1.019531 17.019531 1.019531 15.441406 C 1.019531 13.859375 2.304688 12.578125 3.886719 12.578125 C 4.40625 12.578125 4.898438 12.71875 5.320312 12.964844 L 3.496094 15.109375 L 4.273438 15.769531 L 6.097656 13.625 C 6.503906 14.117188 6.75 14.75 6.75 15.441406 Z M 13.699219 15.484375 L 10.25 15.484375 C 10.28125 13.980469 9.871094 10.046875 4.917969 8.445312 C 5.152344 8.414062 5.417969 8.398438 5.714844 8.398438 C 7.085938 8.398438 9.488281 8.800781 13.171875 10.714844 C 13.335938 10.800781 13.539062 10.789062 13.695312 10.683594 C 13.808594 10.605469 16.457031 8.785156 16.683594 6.777344 C 16.710938 6.539062 16.703125 6.304688 16.664062 6.082031 C 17.351562 6.453125 18.261719 7.175781 19.035156 8.566406 C 17.507812 9.199219 13.429688 11.300781 13.699219 15.484375 Z M 20.117188 18.304688 C 18.535156 18.304688 17.25 17.019531 17.25 15.441406 C 17.25 14.691406 17.539062 14.007812 18.011719 13.496094 L 19.707031 15.746094 L 20.523438 15.132812 L 18.828125 12.882812 C 19.214844 12.6875 19.652344 12.578125 20.117188 12.578125 C 21.695312 12.578125 22.980469 13.859375 22.980469 15.441406 C 22.980469 17.019531 21.695312 18.304688 20.117188 18.304688 Z M 20.117188 18.304688"/>
</svg>

<svg xmlns="http://www.w3.org/2000/svg" width="32" height="32" viewBox="0 0 24 24">
    <path d="M20.117 11.555a3.85 3.85 0 0 0-1.91.504l-1.004-1.336a10.175 10.175 0 0 1 2.7-1.395.531.531 0 0 0 .316-.285.522.522 0 0 0-.008-.426C18.484 5 15.805 4.687 15.69 4.676a.513.513 0 0 0-.425.86c.316.339.449.706.402 1.128-.02.18-.074.367-.152.55-2.914-.952-4.774.407-5.43 1.024-1.625-.574-3.09-.863-4.371-.863-1.977 0-2.809.7-2.899.781a.508.508 0 0 0-.148.52c.05.187.207.328.398.36 1.88.343 3.196.984 4.11 1.745l-1.188 1.395a3.87 3.87 0 0 0-2.101-.621A3.89 3.89 0 0 0 0 15.44a3.889 3.889 0 0 0 3.887 3.883 3.888 3.888 0 0 0 3.883-3.883c0-1-.38-1.914-1.004-2.605l1.14-1.336c1.657 1.95 1.317 4.262 1.293 4.41a.515.515 0 0 0 .114.414.52.52 0 0 0 .39.18h4.567a.505.505 0 0 0 .386-.18.505.505 0 0 0 .117-.41c-.312-2.008.543-3.492 1.641-4.535l.977 1.293a3.887 3.887 0 0 0-1.16 2.77 3.889 3.889 0 0 0 3.886 3.882A3.888 3.888 0 0 0 24 15.441a3.889 3.889 0 0 0-3.883-3.886zM14.97 8.117c-.5.64-1.16 1.211-1.606 1.547a29.529 29.529 0 0 0-2.191-1.012c.668-.48 1.941-1.066 3.797-.535zM6.75 15.441a2.867 2.867 0 0 1-2.863 2.864A2.868 2.868 0 0 1 1.02 15.44a2.866 2.866 0 0 1 4.3-2.476l-1.824 2.144.777.66 1.825-2.144c.406.492.652 1.125.652 1.816zm6.95.043h-3.45c.031-1.504-.379-5.437-5.332-7.039.234-.03.5-.047.797-.047 1.37 0 3.773.403 7.457 2.317a.514.514 0 0 0 .523-.031c.114-.079 2.762-1.899 2.989-3.907.027-.238.02-.472-.02-.695.688.371 1.598 1.094 2.371 2.484-1.527.633-5.605 2.735-5.336 6.918zm6.417 2.82a2.868 2.868 0 0 1-2.867-2.863c0-.75.29-1.433.762-1.945l1.695 2.25.816-.613-1.695-2.25a2.865 2.865 0 0 1 4.152 2.559 2.867 2.867 0 0 1-2.863 2.863zm0 0"/>
</svg>
